X: 30310
T: Old Man Of Ennistymon, The
R: jig
M: 6/8
K: Gmajor
BBB BAB|cBc ABc|BAB GAB|cAG FGA|
BcB BAB|cBc A2g|fed cAF|G3 G3:|
|:fgf fed|cAG FGA|gag gfg|a2f dde|
fff fed|cAG FGA|BdB cAF|GGG G2 D/F/:|
|:G2g gdB|ecA ABc|BAB GGG|cAG FGA|
G2g gdB|ecA ABc|BdB cAF|G2G2 Bd:|
|:gdB gdB|ecA Bcd|BAB GGG|cAG FGA|
gdB gdB|ecA ABc|dcB cAG|G3 G2 A/c/:|

